svg/u1f7f0.svg

<svg viewBox="0 0 128 128" xmlns="http://www.w3.org/2000/svg" xmlns:xlink="http://www.w3.org/1999/xlink">
  <g id="Layer_2">
    <g>
      <g>
        <path d="M4.04,46.79c0,0,0.08,5.37,0.08,6.43s0.37,2.67,2.98,2.67s112,0.23,113.73,0.16 c2.38-0.1,2.94-2.39,3.01-4.37c0.06-1.98,0.03-5.42,0.03-5.42l-27.16-5.91l-78.76,4.09L4.04,46.79z" fill="#464C4F"/>
        <path d="M7.84,25.58c-2.48-0.06-3.52,0.86-3.71,3.03S3.99,45.77,4.06,47.32c0.06,1.55,1.05,3.78,4.09,3.78 s110.82,0.25,112.44,0.19s3.16-1.55,3.29-4.47c0.12-2.91,0.06-16.35,0.12-18.02s-0.68-3.04-3.78-3.1 C117.11,25.64,10.38,25.64,7.84,25.58z" fill="#616266"/>
        <path d="M10.84,42.08c2.42,0.19,4.06-3.24,7.84-5.66s8.42-1.93,8.51-4.74s-13.3-3.39-16.16-0.44 S8,41.85,10.84,42.08z" fill="#9A9A9A"/>
      </g>
      <g>
        <path d="M4.04,93.16c0,0,0.08,5.37,0.08,6.43s0.37,2.67,2.98,2.67s112,0.23,113.73,0.16 c2.38-0.1,2.94-2.39,3.01-4.37c0.06-1.98,0.03-5.42,0.03-5.42l-27.16-5.91L17.95,90.8L4.04,93.16z" fill="#464C4F"/>
        <path d="M7.84,71.95c-2.48-0.06-3.52,0.86-3.71,3.03c-0.19,2.17-0.14,17.17-0.07,18.72 c0.06,1.55,1.05,3.78,4.09,3.78s110.82,0.25,112.44,0.19s3.16-1.55,3.29-4.47c0.12-2.91,0.06-16.35,0.12-18.02 c0.06-1.67-0.68-3.04-3.78-3.1C117.11,72.01,10.38,72.01,7.84,71.95z" fill="#616266"/>
        <path d="M10.84,88.45c2.42,0.19,4.06-3.24,7.84-5.66c3.77-2.42,8.42-1.93,8.51-4.74 c0.1-2.81-13.3-3.39-16.16-0.44C8.18,80.57,8,88.22,10.84,88.45z" fill="#9A9A9A"/>
      </g>
    </g>
    <g>
      <path d="M-183.23,94.1c0,0,0.08,5.37,0.08,6.43s0.37,2.67,2.98,2.67c2.6,0,112,0.23,113.73,0.16 c2.38-0.1,2.94-2.39,3.01-4.37c0.06-1.98,0.03-5.42,0.03-5.42l-27.16-8.91l-78.76,4.09L-183.23,94.1z" fill="#464C4F"/>
      <path d="M-179.43,69.89c-2.48-0.06-3.52,0.86-3.71,3.03c-0.19,2.17-0.14,20.17-0.07,21.72 c0.06,1.55,1.05,3.78,4.09,3.78s110.82,0.25,112.44,0.19c1.61-0.06,3.16-1.55,3.29-4.47c0.12-2.91,0.06-19.35,0.12-21.02 c0.06-1.67-0.68-3.04-3.78-3.1C-70.15,69.95-176.88,69.95-179.43,69.89z" fill="#616266"/>
      <path d="M-176.42,86.39c2.42,0.19,4.06-3.24,7.84-5.66c3.77-2.42,8.42-1.93,8.51-4.74 c0.1-2.81-13.3-3.39-16.16-0.44S-179.27,86.16-176.42,86.39z" fill="#9A9A9A"/>
    </g>
  </g>
</svg>

<svg viewBox="0 0 128 128" xmlns="http://www.w3.org/2000/svg">
  <defs/>
  <path d="M4.04,46.79 C4.04,46.79 4.12,52.16 4.12,53.22 C4.12,54.28 4.49,55.89 7.1,55.89 C9.71,55.89 119.1,56.12 120.83,56.05 C123.21,55.95 123.77,53.66 123.84,51.68 C123.9,49.7 123.87,46.26 123.87,46.26 L96.71,40.35 L17.95,44.44 L4.04,46.79 Z" fill="#464C4F"/>
  <path d="M7.84,25.58 C5.36,25.52 4.32,26.44 4.13,28.61 C3.94,30.78 3.99,45.77 4.06,47.32 C4.12,48.87 5.11,51.1 8.15,51.1 C11.19,51.1 118.97,51.35 120.59,51.29 C122.21,51.23 123.75,49.74 123.88,46.82 C124,43.91 123.94,30.47 124,28.8 C124.06,27.13 123.32,25.76 120.22,25.7 C117.11,25.64 10.38,25.64 7.84,25.58 Z" fill="#616266"/>
  <path d="M10.84,42.08 C13.26,42.27 14.9,38.84 18.68,36.42 C22.46,34 27.1,34.49 27.19,31.68 C27.28,28.87 13.89,28.29 11.03,31.24 C8.17,34.19 8,41.85 10.84,42.08 Z" fill="#9A9A9A"/>
  <path d="M4.04,93.16 C4.04,93.16 4.12,98.53 4.12,99.59 C4.12,100.65 4.49,102.26 7.1,102.26 C9.71,102.26 119.1,102.49 120.83,102.42 C123.21,102.32 123.77,100.03 123.84,98.05 C123.9,96.07 123.87,92.63 123.87,92.63 L96.71,86.72 L17.95,90.8 L4.04,93.16 Z" fill="#464C4F"/>
  <path d="M7.84,71.95 C5.36,71.89 4.32,72.81 4.13,74.98 C3.94,77.15 3.99,92.15 4.06,93.7 C4.12,95.25 5.11,97.48 8.15,97.48 C11.19,97.48 118.97,97.73 120.59,97.67 C122.21,97.61 123.75,96.12 123.88,93.2 C124,90.29 123.94,76.85 124,75.18 C124.06,73.51 123.32,72.14 120.22,72.08 C117.11,72.01 10.38,72.01 7.84,71.95 Z" fill="#616266"/>
  <path d="M10.84,88.45 C13.26,88.64 14.9,85.21 18.68,82.79 C22.45,80.37 27.1,80.86 27.19,78.05 C27.29,75.24 13.89,74.66 11.03,77.61 C8.18,80.57 8,88.22 10.84,88.45 Z" fill="#9A9A9A"/>
</svg>
